X: 9083
T: Da New Rigged Ship
R: reel
M: 4/4
K: Adorian
eg|:a2 ab ageg|a2 ab agef|g2 g2 fgag|1 f2 d2 d2 eg:|2 f2 d2 d2 ed||
|:^cA^cA B2 ed|^cA^cA E2 ed|^cA^cA B2 ed|1 ^c2 A2 A2:|2 ^c2 A2 A2 AB||
|:cdec BcdB|ABAF GF E2|cdec BcdB|1 c2A2 A2AB:|2 c2A2 A4||

